X:6668
T:The Crib Of Perches
O:england
R:Reel
S:Seamus Quinn, Fermanagh (fiddle)
D:Session tape - Buncrana 1979
M:4/4
K:G
A3B AGED | (3EFGAB c3A | G2EC G,CEG | BAGB AGEG |
A3B AGED | (3EFGAB c3A | dfed dcAB | cAGE EDD2 ::
K:D\
df~f2 af~f2 | afbf afdA | (3Bcdef gece | gecB GABc |
df~f2 af~f2 | dfgf edcA | (3Bcdec d2AG | FDEF D4 :|


